Resources/Icons/PCGEx_Editor_X.svg

<?xml version="1.0" encoding="UTF-8"?>
<svg id="icons" xmlns="http://www.w3.org/2000/svg" viewBox="0 0 100 100">
  <defs>
    <style>
      .cls-1 {
        fill: #fff;
      }
    </style>
  </defs>
  <path d="M41.66,75.1v-.07c-.76,1.24-2,2.82-4.4,2.82s-4.68-2.2-4.68-4.47c0-.76.35-1.79.69-2.34l11.9-18.97-10.93-17.26c-.34-.69-.55-1.58-.55-2.34,0-2.2,2.13-4.33,4.61-4.33,2.13,0,3.78,1.51,4.74,3.16l7.77,12.79,7.77-12.79c.89-1.3,2.41-3.16,4.81-3.16s4.54,2,4.54,4.4c0,.69-.27,1.51-.62,2.27l-10.86,17.26,11.9,18.97c.34.55.68,1.58.68,2.34,0,2.27-2.27,4.47-4.6,4.47s-3.64-1.44-4.47-2.75l-9.14-15.13-9.14,15.13Z"/>
  <path class="cls-1" d="M39.66,72.1v-.07c-.76,1.24-2,2.82-4.4,2.82s-4.68-2.2-4.68-4.47c0-.76.35-1.79.69-2.34l11.9-18.97-10.93-17.26c-.34-.69-.55-1.58-.55-2.34,0-2.2,2.13-4.33,4.61-4.33,2.13,0,3.78,1.51,4.74,3.16l7.77,12.79,7.77-12.79c.89-1.3,2.41-3.16,4.81-3.16s4.54,2,4.54,4.4c0,.69-.27,1.51-.62,2.27l-10.86,17.26,11.9,18.97c.34.55.68,1.58.68,2.34,0,2.27-2.27,4.47-4.6,4.47s-3.64-1.44-4.47-2.75l-9.14-15.13-9.14,15.13Z"/>
</svg>

<svg id="icons" xmlns="http://www.w3.org/2000/svg" viewBox="0 0 100 100">
    <defs>
        <style>.cls-1{fill:#fff;}</style>
    </defs>
    <path d="M41.66,75.1V75a5,5,0,0,1-4.4,2.82,4.79,4.79,0,0,1-4.68-4.47,5.21,5.21,0,0,1,.69-2.33l11.9-19L34.24,34.82a5.47,5.47,0,0,1-.55-2.34,4.65,4.65,0,0,1,4.6-4.33A5.76,5.76,0,0,1,43,31.31L50.81,44.1l7.76-12.79c.89-1.3,2.41-3.16,4.81-3.16a4.55,4.55,0,0,1,4.54,4.4,5.83,5.83,0,0,1-.62,2.27L56.44,52.07l11.9,19A5.2,5.2,0,0,1,69,73.38a4.83,4.83,0,0,1-4.6,4.47A5,5,0,0,1,60,75.1L50.81,60Z"/>
    <path class="cls-1"
          d="M39.66,72.1V72a5,5,0,0,1-4.4,2.82,4.79,4.79,0,0,1-4.68-4.47,5.21,5.21,0,0,1,.69-2.33l11.9-19L32.24,31.82a5.47,5.47,0,0,1-.55-2.34,4.65,4.65,0,0,1,4.6-4.33A5.76,5.76,0,0,1,41,28.31L48.81,41.1l7.76-12.79c.89-1.3,2.41-3.16,4.81-3.16a4.55,4.55,0,0,1,4.54,4.4,5.83,5.83,0,0,1-.62,2.27L54.44,49.07l11.9,19A5.2,5.2,0,0,1,67,70.38a4.83,4.83,0,0,1-4.6,4.47A5,5,0,0,1,58,72.1L48.81,57Z"/>
</svg>
